src/img/yandex.svg

<svg width="20" height="20" viewBox="0 0 20 20" fill="none" xmlns="http://www.w3.org/2000/svg">
<path fill-rule="evenodd" clip-rule="evenodd" d="M3.2799 9.9307C3.2799 8.94664 3.36309 8.32213 5.41817 6.80087C7.11955 5.54138 12.5731 1.23743 12.5731 1.23743V8.42209H16.7203V18.7627H4.57524C3.86282 18.7627 3.27969 18.1844 3.27969 17.4778L3.2799 9.93076V9.9307Z" fill="#3E9CDC"/>
<path fill-rule="evenodd" clip-rule="evenodd" d="M12.5731 8.422V12.585L4.95218 17.7335L14.5874 14.6246V8.422H12.5731Z" fill="black" fill-opacity="0.2"/>
<path fill-rule="evenodd" clip-rule="evenodd" d="M9.09046 8.20685C9.53615 7.68023 10.187 7.49436 10.5444 7.79173C10.9018 8.08915 10.8304 8.75719 10.3847 9.2838C9.93931 9.81035 9.28817 9.99602 8.93078 9.69859C8.5734 9.40123 8.64503 8.73333 9.09046 8.20678V8.20685Z" fill="#231F20"/>
</svg>

<svg xmlns="http://www.w3.org/2000/svg" width="20" height="20" fill="none" viewBox="0 0 20 20"><path fill="#3e9cdc" fill-rule="evenodd" d="M3.28 9.93c0-.983.083-1.608 2.138-3.13 1.702-1.259 7.155-5.563 7.155-5.563v7.185h4.147v10.34H4.575a1.294 1.294 0 0 1-1.295-1.284z" clip-rule="evenodd"/><path fill="#000" fill-opacity=".2" fill-rule="evenodd" d="M12.573 8.422v4.163l-7.62 5.148 9.634-3.108V8.422z" clip-rule="evenodd"/><path fill="#231f20" fill-rule="evenodd" d="M9.09 8.207c.446-.527 1.097-.713 1.454-.415.358.297.286.965-.16 1.492-.445.526-1.096.712-1.453.415-.358-.298-.286-.966.16-1.492" clip-rule="evenodd"/></svg>
